X:1
T: The Contradiction Reel
C:
R:Reel
Q: 232
K:A
M:4/4
L:1/8
e|c2 ((3cBA) BE ED|CE Ac df ed|c2 ((3cBA) GA Bc|de fg af ed|
c2 ((3cBA) BE ED|CE Ac df ed|c2 ((3cBA) GA Bg|af ec A1/2A1/2A Ag|
aA A1/2A1/2A aA cA|GB EB GB Eg|aA A1/2A1/2A aA cA|GB EB cA Ag|
aA A1/2A1/2A aA cA|GB EB EB Eg|ag fe fe dc|dE FG A2 e2|
ae c'e ae c'e|be d'e be d'e|c'e e'e c'e e'e|dc BA EA A2|
aA c'A aA c'A|bA d'A bA c'A|c'A e'A c'A e'A|dc BA EA A2|
ce fe ce fe|dc BA BE E2|ce fe ce fe|fa gb af ed|
ce fe ce fe|((3fga) ec BE E2|ec ea fd fa|gb eg ae fd|
c2 ((3cBA) BE ED|CE Ac df ed|c2 ((3cBA) GA Bc|de fg af ed|
c2 ((3cBA) BE ED|CE Ac df ed|c2 ((3cBA) GA Bg|af ec A1/2A1/2A A||
